(1001)
(T2  D=2.5 CR=0. - ZMIN=-5.08 - flat end mill)
G90
G53 G0 Z0.

(2D Contour1)
T2 M6 (flat end mill D=2.5 2.5mm flat endmill)
S18000 M3
G64
G54
G43 H2
G0 X58.692 Y161.154
Z15.
Z5.
G1 Z2. F200
Z-1.
G3 X58.2 Y161.098 I-0.218 J-0.274 F800
X58.255 Y160.606 I0.274 J-0.218
X58.747 Y160.662 I0.218 J0.274
X58.692 Y161.154 I-0.274 J0.218
G1 Z-2. F200
G3 X58.2 Y161.098 I-0.218 J-0.274 F800
X58.255 Y160.606 I0.274 J-0.218
X58.747 Y160.662 I0.218 J0.274
X58.692 Y161.154 I-0.274 J0.218
G1 Z-3. F200
G3 X58.2 Y161.098 I-0.218 J-0.274 F800
X58.255 Y160.606 I0.274 J-0.218
X58.747 Y160.662 I0.218 J0.274
X58.692 Y161.154 I-0.274 J0.218
G1 Z-3.45 F200
G3 X58.2 Y161.098 I-0.218 J-0.274 F800
X58.255 Y160.606 I0.274 J-0.218
X58.747 Y160.662 I0.218 J0.274
X58.692 Y161.154 I-0.274 J0.218
G0 Z5.
X45.4 Y168.63
G1 Z2. F200
Z-1.
G3 X45.05 Y168.98 I-0.35 J0. F800
X44.7 Y168.63 I0. J-0.35
X45.05 Y168.28 I0.35 J0.
X45.4 Y168.63 I0. J0.35
G1 Z-2. F200
G3 X45.05 Y168.98 I-0.35 J0. F800
X44.7 Y168.63 I0. J-0.35
X45.05 Y168.28 I0.35 J0.
X45.4 Y168.63 I0. J0.35
G1 Z-3. F200
G3 X45.05 Y168.98 I-0.35 J0. F800
X44.7 Y168.63 I0. J-0.35
X45.05 Y168.28 I0.35 J0.
X45.4 Y168.63 I0. J0.35
G1 Z-3.45 F200
G3 X45.05 Y168.98 I-0.35 J0. F800
X44.7 Y168.63 I0. J-0.35
X45.05 Y168.28 I0.35 J0.
X45.4 Y168.63 I0. J0.35
G0 Z5.
X31.977 Y160.88
G1 Z2. F200
Z-1.
G3 X31.627 Y161.23 I-0.35 J0. F800
X31.277 Y160.88 I0. J-0.35
X31.627 Y160.53 I0.35 J0.
X31.977 Y160.88 I0. J0.35
G1 Z-2. F200
G3 X31.627 Y161.23 I-0.35 J0. F800
X31.277 Y160.88 I0. J-0.35
X31.627 Y160.53 I0.35 J0.
X31.977 Y160.88 I0. J0.35
G1 Z-3. F200
G3 X31.627 Y161.23 I-0.35 J0. F800
X31.277 Y160.88 I0. J-0.35
X31.627 Y160.53 I0.35 J0.
X31.977 Y160.88 I0. J0.35
G1 Z-3.45 F200
G3 X31.627 Y161.23 I-0.35 J0. F800
X31.277 Y160.88 I0. J-0.35
X31.627 Y160.53 I0.35 J0.
X31.977 Y160.88 I0. J0.35
G0 Z5.
Y145.38
G1 Z2. F200
Z-1.
G3 X31.627 Y145.73 I-0.35 J0. F800
X31.277 Y145.38 I0. J-0.35
X31.627 Y145.03 I0.35 J0.
X31.977 Y145.38 I0. J0.35
G1 Z-2. F200
G3 X31.627 Y145.73 I-0.35 J0. F800
X31.277 Y145.38 I0. J-0.35
X31.627 Y145.03 I0.35 J0.
X31.977 Y145.38 I0. J0.35
G1 Z-3. F200
G3 X31.627 Y145.73 I-0.35 J0. F800
X31.277 Y145.38 I0. J-0.35
X31.627 Y145.03 I0.35 J0.
X31.977 Y145.38 I0. J0.35
G1 Z-3.45 F200
G3 X31.627 Y145.73 I-0.35 J0. F800
X31.277 Y145.38 I0. J-0.35
X31.627 Y145.03 I0.35 J0.
X31.977 Y145.38 I0. J0.35
G0 Z5.
X45.4 Y137.63
G1 Z2. F200
Z-1.
G3 X45.05 Y137.98 I-0.35 J0. F800
X44.7 Y137.63 I0. J-0.35
X45.05 Y137.28 I0.35 J0.
X45.4 Y137.63 I0. J0.35
G1 Z-2. F200
G3 X45.05 Y137.98 I-0.35 J0. F800
X44.7 Y137.63 I0. J-0.35
X45.05 Y137.28 I0.35 J0.
X45.4 Y137.63 I0. J0.35
G1 Z-3. F200
G3 X45.05 Y137.98 I-0.35 J0. F800
X44.7 Y137.63 I0. J-0.35
X45.05 Y137.28 I0.35 J0.
X45.4 Y137.63 I0. J0.35
G1 Z-3.45 F200
G3 X45.05 Y137.98 I-0.35 J0. F800
X44.7 Y137.63 I0. J-0.35
X45.05 Y137.28 I0.35 J0.
X45.4 Y137.63 I0. J0.35
G0 Z5.
X58.823 Y145.38
G1 Z2. F200
Z-1.
G3 X58.473 Y145.73 I-0.35 J0. F800
X58.123 Y145.38 I0. J-0.35
X58.473 Y145.03 I0.35 J0.
X58.823 Y145.38 I0. J0.35
G1 Z-2. F200
G3 X58.473 Y145.73 I-0.35 J0. F800
X58.123 Y145.38 I0. J-0.35
X58.473 Y145.03 I0.35 J0.
X58.823 Y145.38 I0. J0.35
G1 Z-3. F200
G3 X58.473 Y145.73 I-0.35 J0. F800
X58.123 Y145.38 I0. J-0.35
X58.473 Y145.03 I0.35 J0.
X58.823 Y145.38 I0. J0.35
G1 Z-3.45 F200
G3 X58.473 Y145.73 I-0.35 J0. F800
X58.123 Y145.38 I0. J-0.35
X58.473 Y145.03 I0.35 J0.
X58.823 Y145.38 I0. J0.35
G0 Z5.
X135.4 Y153.23
G1 Z2. F200
Z-1.
G3 X135.05 Y153.58 I-0.35 J0. F800
X134.7 Y153.23 I0. J-0.35
X135.05 Y152.88 I0.35 J0.
X135.4 Y153.23 I0. J0.35
G1 Z-2. F200
G3 X135.05 Y153.58 I-0.35 J0. F800
X134.7 Y153.23 I0. J-0.35
X135.05 Y152.88 I0.35 J0.
X135.4 Y153.23 I0. J0.35
G1 Z-3. F200
G3 X135.05 Y153.58 I-0.35 J0. F800
X134.7 Y153.23 I0. J-0.35
X135.05 Y152.88 I0.35 J0.
X135.4 Y153.23 I0. J0.35
G1 Z-3.45 F200
G3 X135.05 Y153.58 I-0.35 J0. F800
X134.7 Y153.23 I0. J-0.35
X135.05 Y152.88 I0.35 J0.
X135.4 Y153.23 I0. J0.35
G0 Z15.
X94.3 Y153.13
Z5.
G1 Z2. F200
Z-1.
G3 X86.05 Y161.38 I-8.25 J0. F800
X77.8 Y153.13 I0. J-8.25
X86.05 Y144.88 I8.25 J0.
X94.3 Y153.13 I0. J8.25
G1 Z-2. F200
G3 X86.05 Y161.38 I-8.25 J0. F800
X77.8 Y153.13 I0. J-8.25
X86.05 Y144.88 I8.25 J0.
X94.3 Y153.13 I0. J8.25
G1 Z-3. F200
G3 X86.05 Y161.38 I-8.25 J0. F800
X77.8 Y153.13 I0. J-8.25
X86.05 Y144.88 I8.25 J0.
X94.3 Y153.13 I0. J8.25
G1 Z-4. F200
G3 X86.05 Y161.38 I-8.25 J0. F800
X77.8 Y153.13 I0. J-8.25
X86.05 Y144.88 I8.25 J0.
X94.3 Y153.13 I0. J8.25
G1 Z-5. F200
G3 X86.05 Y161.38 I-8.25 J0. F800
X77.8 Y153.13 I0. J-8.25
X86.05 Y144.88 I8.25 J0.
X94.3 Y153.13 I0. J8.25
G0 Z5.
X149.3
G1 Z2. F200
Z-1.
Y122.13 F800
G2 X148.05 Y120.88 I-1.25 J0.
G1 X121.939
G2 X86.05 Y104.88 I-35.889 J32.25
X21.765 Y137.968 I-0.001 J78.99
Y168.291 I16.285 J15.162
X86.05 Y201.38 I64.285 J-45.902
X121.939 Y185.38 I0. J-48.25
G1 X148.05
G2 X149.3 Y184.13 I0. J-1.25
G1 Y153.13
Z-2. F200
Y122.13 F800
G2 X148.05 Y120.88 I-1.25 J0.
G1 X121.939
G2 X86.05 Y104.88 I-35.889 J32.25
X21.765 Y137.968 I-0.001 J78.99
Y168.291 I16.285 J15.162
X86.05 Y201.38 I64.285 J-45.902
X121.939 Y185.38 I0. J-48.25
G1 X148.05
G2 X149.3 Y184.13 I0. J-1.25
G1 Y153.13
Z-3. F200
Y122.13 F800
G2 X148.05 Y120.88 I-1.25 J0.
G1 X121.939
G2 X86.05 Y104.88 I-35.889 J32.25
X21.765 Y137.968 I-0.001 J78.99
Y168.291 I16.285 J15.162
X86.05 Y201.38 I64.285 J-45.902
X121.939 Y185.38 I0. J-48.25
G1 X148.05
G2 X149.3 Y184.13 I0. J-1.25
G1 Y153.13
Z-4. F200
Y122.13 F800
G2 X148.05 Y120.88 I-1.25 J0.
G1 X121.939
G2 X86.05 Y104.88 I-35.889 J32.25
X21.765 Y137.968 I-0.001 J78.99
Y168.291 I16.285 J15.162
X86.05 Y201.38 I64.285 J-45.902
X121.939 Y185.38 I0. J-48.25
G1 X148.05
G2 X149.3 Y184.13 I0. J-1.25
G1 Y153.13
Z-5. F200
Y122.13 F800
G2 X148.05 Y120.88 I-1.25 J0.
G1 X121.939
G2 X86.05 Y104.88 I-35.889 J32.25
X21.765 Y137.968 I-0.001 J78.99
Y168.291 I16.285 J15.162
X86.05 Y201.38 I64.285 J-45.902
X121.939 Y185.38 I0. J-48.25
G1 X148.05
G2 X149.3 Y184.13 I0. J-1.25
G1 Y153.13
G0 Z5.
X135.4 Y132.22
G1 Z2. F200
Z-1.
G3 X135.05 Y132.57 I-0.35 J0. F800
X134.7 Y132.22 I0. J-0.35
X135.05 Y131.87 I0.35 J0.
X135.4 Y132.22 I0. J0.35
G1 Z-2. F200
G3 X135.05 Y132.57 I-0.35 J0. F800
X134.7 Y132.22 I0. J-0.35
X135.05 Y131.87 I0.35 J0.
X135.4 Y132.22 I0. J0.35
G1 Z-3. F200
G3 X135.05 Y132.57 I-0.35 J0. F800
X134.7 Y132.22 I0. J-0.35
X135.05 Y131.87 I0.35 J0.
X135.4 Y132.22 I0. J0.35
G1 Z-4. F200
G3 X135.05 Y132.57 I-0.35 J0. F800
X134.7 Y132.22 I0. J-0.35
X135.05 Y131.87 I0.35 J0.
X135.4 Y132.22 I0. J0.35
G1 Z-5. F200
G3 X135.05 Y132.57 I-0.35 J0. F800
X134.7 Y132.22 I0. J-0.35
X135.05 Y131.87 I0.35 J0.
X135.4 Y132.22 I0. J0.35
G0 Z5.
Y174.24
G1 Z2. F200
Z-1.
G3 X135.05 Y174.59 I-0.35 J0. F800
X134.7 Y174.24 I0. J-0.35
X135.05 Y173.89 I0.35 J0.
X135.4 Y174.24 I0. J0.35
G1 Z-2. F200
G3 X135.05 Y174.59 I-0.35 J0. F800
X134.7 Y174.24 I0. J-0.35
X135.05 Y173.89 I0.35 J0.
X135.4 Y174.24 I0. J0.35
G1 Z-3. F200
G3 X135.05 Y174.59 I-0.35 J0. F800
X134.7 Y174.24 I0. J-0.35
X135.05 Y173.89 I0.35 J0.
X135.4 Y174.24 I0. J0.35
G1 Z-4. F200
G3 X135.05 Y174.59 I-0.35 J0. F800
X134.7 Y174.24 I0. J-0.35
X135.05 Y173.89 I0.35 J0.
X135.4 Y174.24 I0. J0.35
G1 Z-5. F200
G3 X135.05 Y174.59 I-0.35 J0. F800
X134.7 Y174.24 I0. J-0.35
X135.05 Y173.89 I0.35 J0.
X135.4 Y174.24 I0. J0.35
G0 Z5.
X55.994 Y183.535
G1 Z2. F200
Z-1.
G3 X55.644 Y183.885 I-0.35 J0. F800
X55.294 Y183.535 I0. J-0.35
X55.644 Y183.185 I0.35 J0.
X55.994 Y183.535 I0. J0.35
G1 Z-2. F200
G3 X55.644 Y183.885 I-0.35 J0. F800
X55.294 Y183.535 I0. J-0.35
X55.644 Y183.185 I0.35 J0.
X55.994 Y183.535 I0. J0.35
G1 Z-3. F200
G3 X55.644 Y183.885 I-0.35 J0. F800
X55.294 Y183.535 I0. J-0.35
X55.644 Y183.185 I0.35 J0.
X55.994 Y183.535 I0. J0.35
G1 Z-4. F200
G3 X55.644 Y183.885 I-0.35 J0. F800
X55.294 Y183.535 I0. J-0.35
X55.644 Y183.185 I0.35 J0.
X55.994 Y183.535 I0. J0.35
G1 Z-5. F200
G3 X55.644 Y183.885 I-0.35 J0. F800
X55.294 Y183.535 I0. J-0.35
X55.644 Y183.185 I0.35 J0.
X55.994 Y183.535 I0. J0.35
G0 Z5.
X42.9 Y153.13
G1 Z2. F200
Z-1.
G3 X38.05 Y157.98 I-4.85 J0. F800
X33.2 Y153.13 I0. J-4.85
X38.05 Y148.28 I4.85 J0.
X42.9 Y153.13 I0. J4.85
G1 Z-2. F200
G3 X38.05 Y157.98 I-4.85 J0. F800
X33.2 Y153.13 I0. J-4.85
X38.05 Y148.28 I4.85 J0.
X42.9 Y153.13 I0. J4.85
G1 Z-3. F200
G3 X38.05 Y157.98 I-4.85 J0. F800
X33.2 Y153.13 I0. J-4.85
X38.05 Y148.28 I4.85 J0.
X42.9 Y153.13 I0. J4.85
G1 Z-4. F200
G3 X38.05 Y157.98 I-4.85 J0. F800
X33.2 Y153.13 I0. J-4.85
X38.05 Y148.28 I4.85 J0.
X42.9 Y153.13 I0. J4.85
G1 Z-5. F200
G3 X38.05 Y157.98 I-4.85 J0. F800
X33.2 Y153.13 I0. J-4.85
X38.05 Y148.28 I4.85 J0.
X42.9 Y153.13 I0. J4.85
G0 Z5.
X55.863 Y122.998
G1 Z2. F200
Z-1.
G3 X55.371 Y122.942 I-0.218 J-0.274 F800
X55.426 Y122.45 I0.274 J-0.218
X55.918 Y122.506 I0.218 J0.274
X55.863 Y122.998 I-0.274 J0.218
G1 Z-2. F200
G3 X55.371 Y122.942 I-0.218 J-0.274 F800
X55.426 Y122.45 I0.274 J-0.218
X55.918 Y122.506 I0.218 J0.274
X55.863 Y122.998 I-0.274 J0.218
G1 Z-3. F200
G3 X55.371 Y122.942 I-0.218 J-0.274 F800
X55.426 Y122.45 I0.274 J-0.218
X55.918 Y122.506 I0.218 J0.274
X55.863 Y122.998 I-0.274 J0.218
G1 Z-4. F200
G3 X55.371 Y122.942 I-0.218 J-0.274 F800
X55.426 Y122.45 I0.274 J-0.218
X55.918 Y122.506 I0.218 J0.274
X55.863 Y122.998 I-0.274 J0.218
G1 Z-5. F200
G3 X55.371 Y122.942 I-0.218 J-0.274 F800
X55.426 Y122.45 I0.274 J-0.218
X55.918 Y122.506 I0.218 J0.274
X55.863 Y122.998 I-0.274 J0.218
G0 Z15.
X84.84 Y51.879
Z5.
G1 Z2. F200
Z-1.
G3 X50.221 Y84.84 I-33.79 J-0.829 F800
X17.26 Y50.221 I0.829 J-33.79
X51.879 Y17.26 I33.79 J0.829
X84.84 Y51.879 I-0.829 J33.79
G1 Z-2. F200
G3 X50.221 Y84.84 I-33.79 J-0.829 F800
X17.26 Y50.221 I0.829 J-33.79
X51.879 Y17.26 I33.79 J0.829
X84.84 Y51.879 I-0.829 J33.79
G1 Z-3. F200
G3 X50.221 Y84.84 I-33.79 J-0.829 F800
X17.26 Y50.221 I0.829 J-33.79
X51.879 Y17.26 I33.79 J0.829
X84.84 Y51.879 I-0.829 J33.79
G1 Z-4. F200
G3 X50.221 Y84.84 I-33.79 J-0.829 F800
X17.26 Y50.221 I0.829 J-33.79
X51.879 Y17.26 I33.79 J0.829
X84.84 Y51.879 I-0.829 J33.79
G1 Z-4.54 F200
G3 X50.221 Y84.84 I-33.79 J-0.829 F800
X17.26 Y50.221 I0.829 J-33.79
X51.879 Y17.26 I33.79 J0.829
X84.84 Y51.879 I-0.829 J33.79
G1 Z-5.08 F200
G3 X50.221 Y84.84 I-33.79 J-0.829 F800
X17.26 Y50.221 I0.829 J-33.79
X51.879 Y17.26 I33.79 J0.829
X84.84 Y51.879 I-0.829 J33.79
G0 Z5.
X103.8 Y51.05
G1 Z2. F200
Z-1.
G3 X100.05 Y54.8 I-3.75 J0. F800
X96.3 Y51.05 I0. J-3.75
X100.05 Y47.3 I3.75 J0.
X103.8 Y51.05 I0. J3.75
G1 Z-2. F200
G3 X100.05 Y54.8 I-3.75 J0. F800
X96.3 Y51.05 I0. J-3.75
X100.05 Y47.3 I3.75 J0.
X103.8 Y51.05 I0. J3.75
G1 Z-3. F200
G3 X100.05 Y54.8 I-3.75 J0. F800
X96.3 Y51.05 I0. J-3.75
X100.05 Y47.3 I3.75 J0.
X103.8 Y51.05 I0. J3.75
G1 Z-4. F200
G3 X100.05 Y54.8 I-3.75 J0. F800
X96.3 Y51.05 I0. J-3.75
X100.05 Y47.3 I3.75 J0.
X103.8 Y51.05 I0. J3.75
G1 Z-4.54 F200
G3 X100.05 Y54.8 I-3.75 J0. F800
X96.3 Y51.05 I0. J-3.75
X100.05 Y47.3 I3.75 J0.
X103.8 Y51.05 I0. J3.75
G1 Z-5.08 F200
G3 X100.05 Y54.8 I-3.75 J0. F800
X96.3 Y51.05 I0. J-3.75
X100.05 Y47.3 I3.75 J0.
X103.8 Y51.05 I0. J3.75
G0 Z5.
X100.4 Y71.96
G1 Z2. F200
Z-1.
G3 X100.05 Y72.31 I-0.35 J0. F800
X99.7 Y71.96 I0. J-0.35
X100.05 Y71.61 I0.35 J0.
X100.4 Y71.96 I0. J0.35
G1 Z-2. F200
G3 X100.05 Y72.31 I-0.35 J0. F800
X99.7 Y71.96 I0. J-0.35
X100.05 Y71.61 I0.35 J0.
X100.4 Y71.96 I0. J0.35
G1 Z-3. F200
G3 X100.05 Y72.31 I-0.35 J0. F800
X99.7 Y71.96 I0. J-0.35
X100.05 Y71.61 I0.35 J0.
X100.4 Y71.96 I0. J0.35
G1 Z-4. F200
G3 X100.05 Y72.31 I-0.35 J0. F800
X99.7 Y71.96 I0. J-0.35
X100.05 Y71.61 I0.35 J0.
X100.4 Y71.96 I0. J0.35
G1 Z-4.54 F200
G3 X100.05 Y72.31 I-0.35 J0. F800
X99.7 Y71.96 I0. J-0.35
X100.05 Y71.61 I0.35 J0.
X100.4 Y71.96 I0. J0.35
G1 Z-5.08 F200
G3 X100.05 Y72.31 I-0.35 J0. F800
X99.7 Y71.96 I0. J-0.35
X100.05 Y71.61 I0.35 J0.
X100.4 Y71.96 I0. J0.35
G0 Z5.
X151.05 Y-1.25
G1 Z2. F200
Z-1.
X51.05 F800
G2 X-1.25 Y51.05 I0. J52.3
X51.05 Y103.35 I52.3 J0.
G1 X151.05
G2 X152.3 Y102.1 I0. J-1.25
G1 Y0.
G2 X151.05 Y-1.25 I-1.25 J0.
G1 Z-2. F200
X51.05 F800
G2 X-1.25 Y51.05 I0. J52.3
X51.05 Y103.35 I52.3 J0.
G1 X151.05
G2 X152.3 Y102.1 I0. J-1.25
G1 Y0.
G2 X151.05 Y-1.25 I-1.25 J0.
G1 Z-3. F200
X51.05 F800
G2 X-1.25 Y51.05 I0. J52.3
X51.05 Y103.35 I52.3 J0.
G1 X151.05
G2 X152.3 Y102.1 I0. J-1.25
G1 Y0.
G2 X151.05 Y-1.25 I-1.25 J0.
G1 Z-4. F200
X51.05 F800
G2 X-1.25 Y51.05 I0. J52.3
X51.05 Y103.35 I52.3 J0.
G1 X151.05
G2 X152.3 Y102.1 I0. J-1.25
G1 Y0.
G2 X151.05 Y-1.25 I-1.25 J0.
G1 Z-4.54 F200
X51.05 F800
G2 X-1.25 Y51.05 I0. J52.3
X51.05 Y103.35 I52.3 J0.
G1 X151.05
G2 X152.3 Y102.1 I0. J-1.25
G1 Y0.
G2 X151.05 Y-1.25 I-1.25 J0.
G1 Z-5.08 F200
X51.05 F800
G2 X-1.25 Y51.05 I0. J52.3
X51.05 Y103.35 I52.3 J0.
G1 X151.05
G2 X152.3 Y102.1 I0. J-1.25
G1 Y0.
G2 X151.05 Y-1.25 I-1.25 J0.
G0 Z5.
X137.968 Y17.874
G1 Z2. F200
Z-1.
G3 X137.476 Y17.818 I-0.218 J-0.274 F800
X137.532 Y17.326 I0.274 J-0.218
X138.024 Y17.382 I0.218 J0.274
X137.968 Y17.874 I-0.274 J0.218
G1 Z-2. F200
G3 X137.476 Y17.818 I-0.218 J-0.274 F800
X137.532 Y17.326 I0.274 J-0.218
X138.024 Y17.382 I0.218 J0.274
X137.968 Y17.874 I-0.274 J0.218
G1 Z-3. F200
G3 X137.476 Y17.818 I-0.218 J-0.274 F800
X137.532 Y17.326 I0.274 J-0.218
X138.024 Y17.382 I0.218 J0.274
X137.968 Y17.874 I-0.274 J0.218
G1 Z-4. F200
G3 X137.476 Y17.818 I-0.218 J-0.274 F800
X137.532 Y17.326 I0.274 J-0.218
X138.024 Y17.382 I0.218 J0.274
X137.968 Y17.874 I-0.274 J0.218
G1 Z-4.54 F200
G3 X137.476 Y17.818 I-0.218 J-0.274 F800
X137.532 Y17.326 I0.274 J-0.218
X138.024 Y17.382 I0.218 J0.274
X137.968 Y17.874 I-0.274 J0.218
G1 Z-5.08 F200
G3 X137.476 Y17.818 I-0.218 J-0.274 F800
X137.532 Y17.326 I0.274 J-0.218
X138.024 Y17.382 I0.218 J0.274
X137.968 Y17.874 I-0.274 J0.218
G0 Z5.
X100.4 Y29.94
G1 Z2. F200
Z-1.
G3 X100.05 Y30.29 I-0.35 J0. F800
X99.7 Y29.94 I0. J-0.35
X100.05 Y29.59 I0.35 J0.
X100.4 Y29.94 I0. J0.35
G1 Z-2. F200
G3 X100.05 Y30.29 I-0.35 J0. F800
X99.7 Y29.94 I0. J-0.35
X100.05 Y29.59 I0.35 J0.
X100.4 Y29.94 I0. J0.35
G1 Z-3. F200
G3 X100.05 Y30.29 I-0.35 J0. F800
X99.7 Y29.94 I0. J-0.35
X100.05 Y29.59 I0.35 J0.
X100.4 Y29.94 I0. J0.35
G1 Z-4. F200
G3 X100.05 Y30.29 I-0.35 J0. F800
X99.7 Y29.94 I0. J-0.35
X100.05 Y29.59 I0.35 J0.
X100.4 Y29.94 I0. J0.35
G1 Z-4.54 F200
G3 X100.05 Y30.29 I-0.35 J0. F800
X99.7 Y29.94 I0. J-0.35
X100.05 Y29.59 I0.35 J0.
X100.4 Y29.94 I0. J0.35
G1 Z-5.08 F200
G3 X100.05 Y30.29 I-0.35 J0. F800
X99.7 Y29.94 I0. J-0.35
X100.05 Y29.59 I0.35 J0.
X100.4 Y29.94 I0. J0.35
G0 Z5.
X138.1 Y85.1
G1 Z2. F200
Z-1.
G3 X137.75 Y85.45 I-0.35 J0. F800
X137.4 Y85.1 I0. J-0.35
X137.75 Y84.75 I0.35 J0.
X138.1 Y85.1 I0. J0.35
G1 Z-2. F200
G3 X137.75 Y85.45 I-0.35 J0. F800
X137.4 Y85.1 I0. J-0.35
X137.75 Y84.75 I0.35 J0.
X138.1 Y85.1 I0. J0.35
G1 Z-3. F200
G3 X137.75 Y85.45 I-0.35 J0. F800
X137.4 Y85.1 I0. J-0.35
X137.75 Y84.75 I0.35 J0.
X138.1 Y85.1 I0. J0.35
G1 Z-4. F200
G3 X137.75 Y85.45 I-0.35 J0. F800
X137.4 Y85.1 I0. J-0.35
X137.75 Y84.75 I0.35 J0.
X138.1 Y85.1 I0. J0.35
G1 Z-4.54 F200
G3 X137.75 Y85.45 I-0.35 J0. F800
X137.4 Y85.1 I0. J-0.35
X137.75 Y84.75 I0.35 J0.
X138.1 Y85.1 I0. J0.35
G1 Z-5.08 F200
G3 X137.75 Y85.45 I-0.35 J0. F800
X137.4 Y85.1 I0. J-0.35
X137.75 Y84.75 I0.35 J0.
X138.1 Y85.1 I0. J0.35
G0 Z5.
X20.994 Y81.456
G1 Z2. F200
Z-1.
G3 X20.644 Y81.806 I-0.35 J0. F800
X20.294 Y81.456 I0. J-0.35
X20.644 Y81.106 I0.35 J0.
X20.994 Y81.456 I0. J0.35
G1 Z-2. F200
G3 X20.644 Y81.806 I-0.35 J0. F800
X20.294 Y81.456 I0. J-0.35
X20.644 Y81.106 I0.35 J0.
X20.994 Y81.456 I0. J0.35
G1 Z-3. F200
G3 X20.644 Y81.806 I-0.35 J0. F800
X20.294 Y81.456 I0. J-0.35
X20.644 Y81.106 I0.35 J0.
X20.994 Y81.456 I0. J0.35
G1 Z-4. F200
G3 X20.644 Y81.806 I-0.35 J0. F800
X20.294 Y81.456 I0. J-0.35
X20.644 Y81.106 I0.35 J0.
X20.994 Y81.456 I0. J0.35
G1 Z-4.54 F200
G3 X20.644 Y81.806 I-0.35 J0. F800
X20.294 Y81.456 I0. J-0.35
X20.644 Y81.106 I0.35 J0.
X20.994 Y81.456 I0. J0.35
G1 Z-5.08 F200
G3 X20.644 Y81.806 I-0.35 J0. F800
X20.294 Y81.456 I0. J-0.35
X20.644 Y81.106 I0.35 J0.
X20.994 Y81.456 I0. J0.35
G0 Z5.
Y20.644
G1 Z2. F200
Z-1.
G3 X20.644 Y20.994 I-0.35 J0. F800
X20.294 Y20.644 I0. J-0.35
X20.644 Y20.294 I0.35 J0.
X20.994 Y20.644 I0. J0.35
G1 Z-2. F200
G3 X20.644 Y20.994 I-0.35 J0. F800
X20.294 Y20.644 I0. J-0.35
X20.644 Y20.294 I0.35 J0.
X20.994 Y20.644 I0. J0.35
G1 Z-3. F200
G3 X20.644 Y20.994 I-0.35 J0. F800
X20.294 Y20.644 I0. J-0.35
X20.644 Y20.294 I0.35 J0.
X20.994 Y20.644 I0. J0.35
G1 Z-4. F200
G3 X20.644 Y20.994 I-0.35 J0. F800
X20.294 Y20.644 I0. J-0.35
X20.644 Y20.294 I0.35 J0.
X20.994 Y20.644 I0. J0.35
G1 Z-4.54 F200
G3 X20.644 Y20.994 I-0.35 J0. F800
X20.294 Y20.644 I0. J-0.35
X20.644 Y20.294 I0.35 J0.
X20.994 Y20.644 I0. J0.35
G1 Z-5.08 F200
G3 X20.644 Y20.994 I-0.35 J0. F800
X20.294 Y20.644 I0. J-0.35
X20.644 Y20.294 I0.35 J0.
X20.994 Y20.644 I0. J0.35
G0 Z15.
M5
G53 G0 Z0.
M30
